; generated by PrusaSlicer 2.4.2+win64 on 2022-12-06 at 03:22:17 UTC

; 

; external perimeters extrusion width = 0.45mm
; perimeters extrusion width = 0.45mm
; infill extrusion width = 0.45mm
; solid infill extrusion width = 0.45mm
; top infill extrusion width = 0.40mm
; first layer extrusion width = 0.42mm

; external perimeters extrusion width = 0.45mm
; perimeters extrusion width = 0.45mm
; infill extrusion width = 0.45mm
; solid infill extrusion width = 0.45mm
; top infill extrusion width = 0.40mm
; first layer extrusion width = 0.42mm

M73 P0 R48
M73 Q0 S48
M107
;TYPE:Custom
M862.3 P "MK3S" ; printer model check
M862.1 P0.4 ; nozzle diameter check
M115 U3.10.0 ; tell printer latest fw version
G90 ; use absolute coordinates
M83 ; extruder relative mode
M104 S215 ; set extruder temp
M140 S60 ; set bed temp
M190 S60 ; wait for bed temp
M109 S215 ; wait for extruder temp
G28 W ; home all without mesh bed level
G80 ; mesh bed leveling
G1 Z0.2 F720
G1 Y-3 F1000 ; go outside print area
G92 E0
G1 X60 E9 F1000 ; intro line
G1 X100 E12.5 F1000 ; intro line
G92 E0
M221 S95

; Don't change E values below. Excessive value can damage the printer.

M907 E538 ; set extruder motor current
G21 ; set units to millimeters
G90 ; use absolute coordinates
M83 ; use relative distances for extrusion
M900 K0.05 ; Filament gcode LA 1.5
M900 K30 ; Filament gcode LA 1.0
M107
;LAYER_CHANGE
;Z:0.2
;HEIGHT:0.2
;BEFORE_LAYER_CHANGE
G92 E0.0
;0.2


G1 E-.8 F2100
G1 Z.4 F720
;AFTER_LAYER_CHANGE
;0.2
G1 X108.891 Y74.024 F10800
G1 Z.2 F720
G1 E.8 F2100
M204 S800
;TYPE:Skirt/Brim
;WIDTH:0.42
G1 F1200
G1 X109.948 Y73.161 E.04278
G1 X110.861 Y72.978 E.02919
G1 X136.261 Y72.978 E.7964
G1 X137.568 Y73.37 E.04278
G1 X138.444 Y74.416 E.04278
G1 X138.638 Y75.356 E.03008
G1 X138.638 Y100.785 E.79731
G1 X138.259 Y131.729 E.97032
G1 X137.851 Y133.031 E.04278
G1 X136.795 Y133.895 E.04278
G1 X135.882 Y134.077 E.02919
G1 X110.482 Y134.077 E.7964
G1 X109.175 Y133.686 E.04278
G1 X108.298 Y132.64 E.04278
G1 X108.105 Y131.7 E.03008
G1 X108.105 Y106.271 E.79731
G1 X108.484 Y75.326 E.97032
M73 Q0 S47
G1 X108.873 Y74.082 E.0409
M204 S1000
; printing object boxtest2.stl id:1 copy 0
;WIPE_START
G1 F8640
G1 X109.948 Y73.161 E-.32671
G1 X110.861 Y72.978 E-.21496
G1 X111.806 Y72.978 E-.21833
;WIPE_END
G1 E-.04 F2100
G1 Z.6 F720
G1 X111.648 Y76.143 F10800
G1 Z.2 F720
G1 E.8 F2100
M204 S800
;TYPE:Perimeter
G1 F1200
G1 X135.474 Y76.143 E.74704
G1 X135.474 Y99.968 E.74704
G1 X111.648 Y99.968 E.74704
G1 X111.648 Y76.203 E.74516
M204 S1000
G1 X111.271 Y75.766 F10800
M204 S800
;TYPE:External perimeter
G1 F1200
G1 X135.851 Y75.766 E.77069
G1 X135.851 Y100.346 E.77069
G1 X111.271 Y100.346 E.77069
G1 X111.271 Y75.826 E.76881
M204 S1000
M73 P0 R47
G1 X111.657 Y75.869 F10800
;WIPE_START
G1 F8640
G1 X114.562 Y75.817 E-.76
;WIPE_END
G1 E-.04 F2100
G1 Z.6 F720
G1 X134.592 Y76.256 F10800
G1 Z.2 F720
G1 E.8 F2100
M204 S800
;TYPE:Solid infill
;WIDTH:0.422786
G1 F1200
G1 X135.191 Y76.854 E.02673
G1 X135.191 Y77.391 E.01697
G1 X134.225 Y76.425 E.04315
G1 X133.688 Y76.425 E.01697
G1 X135.191 Y77.929 E.06715
G1 X135.191 Y78.466 E.01697
G1 X133.15 Y76.425 E.09115
G1 X132.613 Y76.425 E.01697
G1 X135.191 Y79.003 E.11514
G1 X135.191 Y79.54 E.01697
G1 X132.076 Y76.425 E.13914
G1 X131.539 Y76.425 E.01697
G1 X135.191 Y80.077 E.16314
G1 X135.191 Y80.615 E.01697
G1 X131.002 Y76.425 E.18713
G1 X130.464 Y76.425 E.01697
G1 X135.191 Y81.152 E.21113
G1 X135.191 Y81.689 E.01697
M73 Q1 S47
G1 X129.927 Y76.425 E.23513
G1 X129.39 Y76.425 E.01697
M73 P1 R47
G1 X135.191 Y82.226 E.25912
G1 X135.191 Y82.764 E.01697
G1 X128.853 Y76.425 E.28312
G1 X128.315 Y76.425 E.01697
G1 X135.191 Y83.301 E.30712
G1 X135.191 Y83.838 E.01697
G1 X127.778 Y76.425 E.33111
G1 X127.241 Y76.425 E.01697
G1 X135.191 Y84.375 E.35511
G1 X135.191 Y84.912 E.01697
G1 X126.704 Y76.425 E.37911
G1 X126.167 Y76.425 E.01697
G1 X135.191 Y85.45 E.4031
G1 X135.191 Y85.987 E.01697
G1 X125.629 Y76.425 E.4271
G1 X125.092 Y76.425 E.01697
G1 X135.191 Y86.524 E.4511
G1 X135.191 Y87.061 E.01697
G1 X124.555 Y76.425 E.4751
G1 X124.018 Y76.425 E.01697
G1 X135.191 Y87.598 E.49909
G1 X135.191 Y88.136 E.01697
G1 X123.481 Y76.425 E.52309
G1 X122.943 Y76.425 E.01697
G1 X135.191 Y88.673 E.54709
G1 X135.191 Y89.21 E.01697
G1 X122.406 Y76.425 E.57108
G1 X121.869 Y76.425 E.01697
G1 X135.191 Y89.747 E.59508
G1 X135.191 Y90.284 E.01697
G1 X121.332 Y76.425 E.61908
G1 X120.795 Y76.425 E.01697
G1 X135.191 Y90.822 E.64307
G1 X135.191 Y91.359 E.01697
G1 X120.257 Y76.425 E.66707
G1 X119.72 Y76.425 E.01697
G1 X135.191 Y91.896 E.69107
G1 X135.191 Y92.433 E.01697
G1 X119.183 Y76.425 E.71506
G1 X118.646 Y76.425 E.01697
G1 X135.191 Y92.971 E.73906
G1 X135.191 Y93.508 E.01697
G1 X118.108 Y76.425 E.76306
G1 X117.571 Y76.425 E.01697
G1 X135.191 Y94.045 E.78706
G1 X135.191 Y94.582 E.01697
G1 X117.034 Y76.425 E.81105
G1 X116.497 Y76.425 E.01697
G1 X135.191 Y95.119 E.83505
G1 X135.191 Y95.657 E.01697
G1 X115.96 Y76.425 E.85905
G1 X115.422 Y76.425 E.01697
G1 X135.191 Y96.194 E.88304
G1 X135.191 Y96.731 E.01697
G1 X114.885 Y76.425 E.90704
G1 X114.348 Y76.425 E.01697
G1 X135.191 Y97.268 E.93104
G1 X135.191 Y97.805 E.01697
M73 Q2 S47
G1 X113.811 Y76.425 E.95503
G1 X113.274 Y76.425 E.01697
M73 P2 R47
G1 X135.191 Y98.343 E.97903
G1 X135.191 Y98.88 E.01697
G1 X112.736 Y76.425 E1.00303
G1 X112.199 Y76.425 E.01697
G1 X135.191 Y99.417 E1.02702
G1 X135.191 Y99.686 E.00848
G1 X134.922 Y99.686 E.00849
G1 X111.931 Y76.694 E1.02702
G1 X111.931 Y77.231 E.01697
G1 X134.385 Y99.686 E1.00302
G1 X133.848 Y99.686 E.01697
G1 X111.931 Y77.768 E.97903
G1 X111.931 Y78.306 E.01697
G1 X133.311 Y99.686 E.95503
G1 X132.773 Y99.686 E.01697
G1 X111.931 Y78.843 E.93103
G1 X111.931 Y79.38 E.01697
G1 X132.236 Y99.686 E.90703
G1 X131.699 Y99.686 E.01697
G1 X111.931 Y79.917 E.88304
G1 X111.931 Y80.455 E.01697
M73 Q2 S46
G1 X131.162 Y99.686 E.85904
G1 X130.624 Y99.686 E.01697
G1 X111.931 Y80.992 E.83504
G1 X111.931 Y81.529 E.01697
G1 X130.087 Y99.686 E.81105
G1 X129.55 Y99.686 E.01697
G1 X111.931 Y82.066 E.78705
G1 X111.931 Y82.603 E.01697
G1 X129.013 Y99.686 E.76305
G1 X128.476 Y99.686 E.01697
G1 X111.931 Y83.141 E.73906
G1 X111.931 Y83.678 E.01697
G1 X127.938 Y99.686 E.71506
G1 X127.401 Y99.686 E.01697
G1 X111.931 Y84.215 E.69106
G1 X111.931 Y84.752 E.01697
M73 P2 R46
G1 X126.864 Y99.686 E.66707
G1 X126.327 Y99.686 E.01697
G1 X111.931 Y85.289 E.64307
G1 X111.931 Y85.827 E.01697
M73 P3 R46
M73 Q3 S46
G1 X125.79 Y99.686 E.61907
G1 X125.252 Y99.686 E.01697
G1 X111.931 Y86.364 E.59507
G1 X111.931 Y86.901 E.01697
G1 X124.715 Y99.686 E.57108
G1 X124.178 Y99.686 E.01697
G1 X111.931 Y87.438 E.54708
G1 X111.931 Y87.975 E.01697
G1 X123.641 Y99.686 E.52308
G1 X123.104 Y99.686 E.01697
G1 X111.931 Y88.513 E.49909
G1 X111.931 Y89.05 E.01697
G1 X122.566 Y99.686 E.47509
G1 X122.029 Y99.686 E.01697
G1 X111.931 Y89.587 E.45109
G1 X111.931 Y90.124 E.01697
G1 X121.492 Y99.686 E.4271
G1 X120.955 Y99.686 E.01697
G1 X111.931 Y90.662 E.4031
G1 X111.931 Y91.199 E.01697
G1 X120.417 Y99.686 E.3791
G1 X119.88 Y99.686 E.01697
G1 X111.931 Y91.736 E.35511
G1 X111.931 Y92.273 E.01697
G1 X119.343 Y99.686 E.33111
G1 X118.806 Y99.686 E.01697
G1 X111.931 Y92.81 E.30711
G1 X111.931 Y93.348 E.01697
G1 X118.269 Y99.686 E.28312
G1 X117.731 Y99.686 E.01697
G1 X111.931 Y93.885 E.25912
G1 X111.931 Y94.422 E.01697
G1 X117.194 Y99.686 E.23512
G1 X116.657 Y99.686 E.01697
G1 X111.931 Y94.959 E.21112
G1 X111.931 Y95.496 E.01697
G1 X116.12 Y99.686 E.18713
G1 X115.583 Y99.686 E.01697
G1 X111.931 Y96.034 E.16313
G1 X111.931 Y96.571 E.01697
G1 X115.045 Y99.686 E.13913
G1 X114.508 Y99.686 E.01697
G1 X111.931 Y97.108 E.11514
G1 X111.931 Y97.645 E.01697
G1 X113.971 Y99.686 E.09114
G1 X113.434 Y99.686 E.01697
G1 X111.931 Y98.183 E.06714
G1 X111.931 Y98.72 E.01697
G1 X112.896 Y99.686 E.04315
G1 X112.359 Y99.686 E.01697
G1 X111.761 Y99.087 E.02673
M204 S1000
; stop printing object boxtest2.stl id:1 copy 0
; printing object boxtest.stl id:0 copy 0
;WIPE_START
G1 F8640
G1 X112.359 Y99.686 E-.1954
G1 X112.896 Y99.686 E-.12404
G1 X111.931 Y98.72 E-.31541
G1 X111.931 Y98.183 E-.12404
G1 X111.934 Y98.186 E-.0011
;WIPE_END
G1 E-.04 F2100
G1 Z.6 F720
G1 X111.269 Y107.087 F10800
G1 Z.2 F720
G1 E.8 F2100
M204 S800
;TYPE:Perimeter
;WIDTH:0.42
G1 F1200
G1 X135.095 Y107.087 E.74704
G1 X135.095 Y130.913 E.74704
G1 X111.269 Y130.913 E.74704
G1 X111.269 Y107.147 E.74516
M204 S1000
G1 X110.892 Y106.71 F10800
M204 S800
;TYPE:External perimeter
G1 F1200
G1 X135.472 Y106.71 E.77069
G1 X135.472 Y131.29 E.77069
G1 X110.892 Y131.29 E.77069
G1 X110.892 Y106.77 E.76881
M204 S1000
G1 X111.278 Y106.814 F10800
;WIPE_START
G1 F8640
G1 X114.183 Y106.762 E-.76
;WIPE_END
G1 E-.04 F2100
G1 Z.6 F720
G1 X134.213 Y107.2 F10800
G1 Z.2 F720
G1 E.8 F2100
M204 S800
;TYPE:Solid infill
;WIDTH:0.422786
G1 F1200
G1 X134.812 Y107.799 E.02673
G1 X134.812 Y108.336 E.01697
G1 X133.846 Y107.37 E.04315
G1 X133.309 Y107.37 E.01697
G1 X134.812 Y108.873 E.06715
G1 X134.812 Y109.411 E.01697
G1 X132.771 Y107.37 E.09115
G1 X132.234 Y107.37 E.01697
G1 X134.812 Y109.948 E.11514
G1 X134.812 Y110.485 E.01697
G1 X131.697 Y107.37 E.13914
G1 X131.16 Y107.37 E.01697
G1 X134.812 Y111.022 E.16314
G1 X134.812 Y111.559 E.01697
G1 X130.623 Y107.37 E.18713
G1 X130.085 Y107.37 E.01697
G1 X134.812 Y112.097 E.21113
G1 X134.812 Y112.634 E.01697
G1 X129.548 Y107.37 E.23513
G1 X129.011 Y107.37 E.01697
G1 X134.812 Y113.171 E.25912
G1 X134.812 Y113.708 E.01697
G1 X128.474 Y107.37 E.28312
G1 X127.937 Y107.37 E.01697
M73 Q4 S46
G1 X134.812 Y114.245 E.30712
G1 X134.812 Y114.783 E.01697
M73 P4 R46
G1 X127.399 Y107.37 E.33111
G1 X126.862 Y107.37 E.01697
G1 X134.812 Y115.32 E.35511
G1 X134.812 Y115.857 E.01697
G1 X126.325 Y107.37 E.37911
G1 X125.788 Y107.37 E.01697
G1 X134.812 Y116.394 E.4031
G1 X134.812 Y116.932 E.01697
G1 X125.251 Y107.37 E.4271
G1 X124.713 Y107.37 E.01697
G1 X134.812 Y117.469 E.4511
G1 X134.812 Y118.006 E.01697
G1 X124.176 Y107.37 E.4751
G1 X123.639 Y107.37 E.01697
G1 X134.812 Y118.543 E.49909
G1 X134.812 Y119.08 E.01697
G1 X123.102 Y107.37 E.52309
G1 X122.564 Y107.37 E.01697
G1 X134.812 Y119.618 E.54709
G1 X134.812 Y120.155 E.01697
G1 X122.027 Y107.37 E.57108
G1 X121.49 Y107.37 E.01697
G1 X134.812 Y120.692 E.59508
G1 X134.812 Y121.229 E.01697
G1 X120.953 Y107.37 E.61908
G1 X120.416 Y107.37 E.01697
G1 X134.812 Y121.766 E.64307
G1 X134.812 Y122.304 E.01697
G1 X119.878 Y107.37 E.66707
G1 X119.341 Y107.37 E.01697
G1 X134.812 Y122.841 E.69107
G1 X134.812 Y123.378 E.01697
G1 X118.804 Y107.37 E.71506
G1 X118.267 Y107.37 E.01697
G1 X134.812 Y123.915 E.73906
G1 X134.812 Y124.452 E.01697
G1 X117.73 Y107.37 E.76306
G1 X117.192 Y107.37 E.01697
G1 X134.812 Y124.99 E.78706
G1 X134.812 Y125.527 E.01697
M73 Q4 S45
G1 X116.655 Y107.37 E.81105
G1 X116.118 Y107.37 E.01697
G1 X134.812 Y126.064 E.83505
G1 X134.812 Y126.601 E.01697
G1 X115.581 Y107.37 E.85905
G1 X115.043 Y107.37 E.01697
G1 X134.812 Y127.139 E.88304
G1 X134.812 Y127.676 E.01697
G1 X114.506 Y107.37 E.90704
G1 X113.969 Y107.37 E.01697
G1 X134.812 Y128.213 E.93104
G1 X134.812 Y128.75 E.01697
G1 X113.432 Y107.37 E.95503
G1 X112.895 Y107.37 E.01697
M73 P4 R45
M73 Q5 S45
G1 X134.812 Y129.287 E.97903
G1 X134.812 Y129.825 E.01697
M73 P5 R45
G1 X112.357 Y107.37 E1.00303
G1 X111.82 Y107.37 E.01697
G1 X134.812 Y130.362 E1.02702
G1 X134.812 Y130.63 E.00848
G1 X134.543 Y130.63 E.00849
G1 X111.552 Y107.639 E1.02702
G1 X111.552 Y108.176 E.01697
G1 X134.006 Y130.63 E1.00302
G1 X133.469 Y130.63 E.01697
G1 X111.552 Y108.713 E.97903
G1 X111.552 Y109.25 E.01697
G1 X132.932 Y130.63 E.95503
G1 X132.394 Y130.63 E.01697
G1 X111.552 Y109.788 E.93103
G1 X111.552 Y110.325 E.01697
G1 X131.857 Y130.63 E.90703
G1 X131.32 Y130.63 E.01697
G1 X111.552 Y110.862 E.88304
G1 X111.552 Y111.399 E.01697
G1 X130.783 Y130.63 E.85904
G1 X130.246 Y130.63 E.01697
G1 X111.552 Y111.936 E.83504
G1 X111.552 Y112.474 E.01697
G1 X129.708 Y130.63 E.81105
G1 X129.171 Y130.63 E.01697
G1 X111.552 Y113.011 E.78705
G1 X111.552 Y113.548 E.01697
G1 X128.634 Y130.63 E.76305
G1 X128.097 Y130.63 E.01697
G1 X111.552 Y114.085 E.73906
G1 X111.552 Y114.623 E.01697
G1 X127.56 Y130.63 E.71506
G1 X127.022 Y130.63 E.01697
G1 X111.552 Y115.16 E.69106
G1 X111.552 Y115.697 E.01697
G1 X126.485 Y130.63 E.66707
G1 X125.948 Y130.63 E.01697
G1 X111.552 Y116.234 E.64307
G1 X111.552 Y116.771 E.01697
G1 X125.411 Y130.63 E.61907
G1 X124.873 Y130.63 E.01697
M73 Q6 S45
G1 X111.552 Y117.309 E.59507
G1 X111.552 Y117.846 E.01697
M73 P6 R45
G1 X124.336 Y130.63 E.57108
G1 X123.799 Y130.63 E.01697
G1 X111.552 Y118.383 E.54708
G1 X111.552 Y118.92 E.01697
G1 X123.262 Y130.63 E.52308
G1 X122.725 Y130.63 E.01697
G1 X111.552 Y119.457 E.49909
G1 X111.552 Y119.995 E.01697
G1 X122.187 Y130.63 E.47509
G1 X121.65 Y130.63 E.01697
G1 X111.552 Y120.532 E.45109
G1 X111.552 Y121.069 E.01697
G1 X121.113 Y130.63 E.4271
G1 X120.576 Y130.63 E.01697
G1 X111.552 Y121.606 E.4031
G1 X111.552 Y122.143 E.01697
G1 X120.039 Y130.63 E.3791
G1 X119.501 Y130.63 E.01697
G1 X111.552 Y122.681 E.35511
G1 X111.552 Y123.218 E.01697
G1 X118.964 Y130.63 E.33111
G1 X118.427 Y130.63 E.01697
G1 X111.552 Y123.755 E.30711
G1 X111.552 Y124.292 E.01697
G1 X117.89 Y130.63 E.28312
G1 X117.352 Y130.63 E.01697
G1 X111.552 Y124.83 E.25912
G1 X111.552 Y125.367 E.01697
G1 X116.815 Y130.63 E.23512
G1 X116.278 Y130.63 E.01697
G1 X111.552 Y125.904 E.21112
G1 X111.552 Y126.441 E.01697
G1 X115.741 Y130.63 E.18713
G1 X115.204 Y130.63 E.01697
G1 X111.552 Y126.978 E.16313
G1 X111.552 Y127.516 E.01697
G1 X114.666 Y130.63 E.13913
G1 X114.129 Y130.63 E.01697
G1 X111.552 Y128.053 E.11514
G1 X111.552 Y128.59 E.01697
G1 X113.592 Y130.63 E.09114
G1 X113.055 Y130.63 E.01697
G1 X111.552 Y129.127 E.06714
G1 X111.552 Y129.664 E.01697
G1 X112.518 Y130.63 E.04315
G1 X111.98 Y130.63 E.01697
G1 X111.382 Y130.032 E.02673
M204 S1000
; stop printing object boxtest.stl id:0 copy 0
M106 S84.15
;LAYER_CHANGE
;Z:0.4
;HEIGHT:0.2
;BEFORE_LAYER_CHANGE
G92 E0.0
;0.4


;WIPE_START
G1 F8640
G1 X111.98 Y130.63 E-.1954
G1 X112.518 Y130.63 E-.12404
G1 X111.552 Y129.664 E-.31541
G1 X111.552 Y129.127 E-.12404
G1 X111.555 Y129.131 E-.0011
;WIPE_END
G1 E-.04 F2100
G1 Z.6 F720
;AFTER_LAYER_CHANGE
;0.4
M104 S210 ; set temperature
G1 X108.105 Y129.131 F10800
G1 Z.4 F720
G1 E.8 F2100
;TYPE:Skirt/Brim
;WIDTH:0.42
G1 F3000
G1 X108.105 Y106.271 E.71674
G1 X108.484 Y75.326 E.97032
G1 X108.891 Y74.024 E.04278
G1 X109.948 Y73.161 E.04278
G1 X110.861 Y72.978 E.02919
G1 X136.261 Y72.978 E.7964
G1 X137.568 Y73.37 E.04278
G1 X138.444 Y74.416 E.04278
G1 X138.638 Y75.356 E.03008
G1 X138.638 Y100.785 E.79731
G1 X138.259 Y131.729 E.97032
G1 X137.851 Y133.031 E.04278
G1 X136.795 Y133.895 E.04278
G1 X135.882 Y134.077 E.02919
G1 X110.482 Y134.077 E.7964
G1 X109.175 Y133.686 E.04278
G1 X108.298 Y132.64 E.04278
G1 X108.105 Y131.7 E.03008
G1 X108.105 Y129.191 E.07869
; printing object boxtest2.stl id:1 copy 0
;WIPE_START
G1 F8640
G1 X108.105 Y125.899 E-.76
;WIPE_END
G1 E-.04 F2100
G1 Z.8 F720
G1 X111.493 Y100.123 F10800
G1 Z.4 F720
G1 E.8 F2100
M204 S800
;TYPE:Perimeter
;WIDTH:0.45
G1 F3600
G1 X111.493 Y75.988 E.81697
G1 X135.629 Y75.988 E.81697
G1 X135.629 Y100.123 E.81697
G1 X111.553 Y100.123 E.81494
M204 S1000
G1 X111.086 Y100.531 F10800
M204 S800
;TYPE:External perimeter
G1 F2100
G1 X111.086 Y75.581 E.84453
G1 X136.036 Y75.581 E.84453
M73 Q6 S44
G1 X136.036 Y100.531 E.84453
G1 X111.146 Y100.531 E.8425
M204 S1000
G1 X111.189 Y100.144 F10800
;WIPE_START
G1 F8640
G1 X111.138 Y97.239 E-.76
;WIPE_END
G1 E-.04 F2100
G1 Z.8 F720
G1 X135.507 Y99.177 F10800
G1 Z.4 F720
G1 E.8 F2100
;TYPE:Solid infill
;WIDTH:0.450695
G1 F11035.497
G1 X134.865 Y99.818 E.03075
G1 X134.289 Y99.818 E.01955
G1 X135.323 Y98.783 E.04961
G1 X135.323 Y98.207 E.01955
G1 X133.712 Y99.818 E.07727
G1 X133.135 Y99.818 E.01955
G1 X135.323 Y97.63 E.10492
G1 X135.323 Y97.053 E.01955
G1 X132.559 Y99.818 E.13257
G1 X131.982 Y99.818 E.01955
G1 X135.323 Y96.477 E.16023
G1 X135.323 Y95.9 E.01955
G1 X131.405 Y99.818 E.18788
G1 X130.829 Y99.818 E.01955
G1 X135.323 Y95.323 E.21553
G1 X135.323 Y94.747 E.01955
